X:1
T:The Sun from the East
M:3/4
L:1/4
C:Unk
S:The Dorchester Hornpipe pub 1977 Dorset County Museum
Z:Dougie McCallum <mccallum.rupert:which.net> tradtunes 2003-1-21
R:Waltz
K:D
A |\
dAd | f2 e/d/ | eAe | g2f/e/ | f(d/e/) (f/e/) | a(g/f/) (e/d/) | e/c/ A G |
(G F) A | d f e/d/ | {f}e (d/c/) (B/A/) | d3/ (f/e/d/) | {d}c2 A/A/ | B/c/ d c/B/ | c/d/ e f/^g/ |
a (e/d/) (c/B/) | A2 e/e/ | e (d/c/) (B/A/) | e3/ f/ g | f (e/d/) (c/B/) | f2 f | b (f/e/) (d/c/) |
d/c/ B/c/ d/B/ | e/f/ g/f/ e/d/ | c/B/ A/B/ c/A/ | d/c/ d/e/ f/g/ | a3/ g/ f | g f e | d2 |
